X:1
T:Lady Carmichael of Castle Craig's Strathspey
C:John Gow (1764-1826)
L:1/8
M:4/4
I:linebreak $
K:C
V:1 treble 
V:1
 Tc>d ec A<c G2 | A<c G>e Td>c de | Tc>d ec A<c G2 | A<c G>e{e} Td2 c2 :| Tc>d ef g<c e2 |$ %5
 f>d e>c Td>c Ad | Tc>d ef g<c e2 | f>d e>c Td2 c2 | Tc>d ef g<c e2 | f<a e<g Td>cde |$ %10
 c<ed<f e<gf<a | g<ef>e{e} Td2 c2 || %12
